svg/fluentui-system-icons/ic_fluent_text_first_line_24_filled.svg

<svg width="24" height="24" viewBox="0 0 24 24" fill="none" xmlns="http://www.w3.org/2000/svg">
<path d="M20.2929 3.29289C20.6834 2.90237 21.3166 2.90237 21.7071 3.29289C22.0976 3.68342 22.0976 4.31658 21.7071 4.70711L20.4142 6L21.7071 7.29289C22.0976 7.68342 22.0976 8.31658 21.7071 8.70711C21.3166 9.09763 20.6834 9.09763 20.2929 8.70711L18.2929 6.70711C17.9024 6.31658 17.9024 5.68342 18.2929 5.29289L20.2929 3.29289ZM14 5C14.5523 5 15 5.44772 15 6C15 6.55228 14.5523 7 14 7H3C2.44772 7 2 6.55228 2 6C2 5.44772 2.44772 5 3 5H14ZM3 17H21C21.5523 17 22 17.4477 22 18C22 18.5523 21.5523 19 21 19H3C2.44772 19 2 18.5523 2 18C2 17.4477 2.44772 17 3 17ZM22 12C22 11.4477 21.5523 11 21 11H3C2.44772 11 2 11.4477 2 12C2 12.5523 2.44772 13 3 13H21C21.5523 13 22 12.5523 22 12Z" fill="#212121"/>
</svg>

<svg xmlns="http://www.w3.org/2000/svg" width="24" height="24"><path d="M20.293 3.293a1 1 0 1 1 1.414 1.414L20.414 6l1.293 1.293a1 1 0 0 1-1.414 1.414l-2-2a1 1 0 0 1 0-1.414l2-2ZM14 5a1 1 0 1 1 0 2H3a1 1 0 0 1 0-2h11ZM3 17h18a1 1 0 1 1 0 2H3a1 1 0 1 1 0-2Zm19-5a1 1 0 0 0-1-1H3a1 1 0 1 0 0 2h18a1 1 0 0 0 1-1Z"/></svg>
